svgs/sharp-solid/bridge-circle-exclamation.svg

<svg xmlns="http://www.w3.org/2000/svg" viewBox="0 0 640 512"><!--! Font Awesome Pro 6.4.0 by @fontawesome - https://fontawesome.com License - https://fontawesome.com/license (Commercial License) Copyright 2023 Fonticons, Inc. --><path d="M64 32H32V96H64h40v64H32V288c53 0 96 43 96 96v96h96V384c0-53 43-96 96-96c6.3 0 12.4 .6 18.3 1.7C367.1 231.8 426.9 192 496 192c42.5 0 81.6 15.1 112 40.2V160H536V96h40 32V32H576 64zM488 96v64H408V96h80zM360 96v64H280V96h80zM232 96v64H152V96h80zM496 512a144 144 0 1 0 0-288 144 144 0 1 0 0 288zm16-64H480V416h32v32zm0-176v16 80 16H480V368 288 272h32z"/></svg>

<svg xmlns="http://www.w3.org/2000/svg" viewBox="0 0 640 512"><!--! Font Awesome Pro 6.6.0 by @fontawesome - https://fontawesome.com License - https://fontawesome.com/license (Commercial License) Copyright 2024 Fonticons, Inc. --><path d="M64 32L32 32l0 64 32 0 40 0 0 64-72 0 0 128c53 0 96 43 96 96l0 96 96 0 0-96c0-53 43-96 96-96c6.3 0 12.4 .6 18.3 1.7C367.1 231.8 426.9 192 496 192c42.5 0 81.6 15.1 112 40.2l0-72.2-72 0 0-64 40 0 32 0 0-64-32 0L64 32zM488 96l0 64-80 0 0-64 80 0zM360 96l0 64-80 0 0-64 80 0zM232 96l0 64-80 0 0-64 80 0zM496 512a144 144 0 1 0 0-288 144 144 0 1 0 0 288zm16-64l-32 0 0-32 32 0 0 32zm0-176l0 16 0 80 0 16-32 0 0-16 0-80 0-16 32 0z"/></svg>
